Newaita-dark/apps/64/preferences-system-privacy.svg

<svg height="64" viewBox="0 0 64 64" width="64" xmlns="http://www.w3.org/2000/svg" xmlns:xlink="http://www.w3.org/1999/xlink"><linearGradient id="a"><stop offset="0" stop-opacity=".313726"/><stop offset=".222222" stop-opacity=".27451"/><stop offset="1" stop-opacity="0"/></linearGradient><radialGradient id="b" cx="450.908936" cy="189.579361" gradientTransform="matrix(.00000035 -.156265 -.281277 -.0000002 89.046304 127.190659)" gradientUnits="userSpaceOnUse" r="21.166656" xlink:href="#a"/><radialGradient id="c" cx="450.908936" cy="189.579361" gradientTransform="matrix(-.00000035 .156265 .281277 .0000002 -25.540237 -15.054964)" gradientUnits="userSpaceOnUse" r="21.166656" xlink:href="#a"/><radialGradient id="d" cx="450.908936" cy="189.579361" gradientTransform="matrix(-.00000035 -.156265 .281277 -.0000002 -25.540237 127.190659)" gradientUnits="userSpaceOnUse" r="21.166656" xlink:href="#a"/><radialGradient id="e" cx="450.908936" cy="189.579361" gradientTransform="matrix(.00000035 .156265 -.281277 .0000002 89.0463 -15.054965)" gradientUnits="userSpaceOnUse" r="21.166656" xlink:href="#a"/><linearGradient id="f" gradientTransform="matrix(.0267201 0 0 .125012 24.930772 26.877567)" gradientUnits="userSpaceOnUse" x1="255.323059" x2="255.323044" y1="233.5" y2="254.666656"><stop offset="0" stop-opacity=".27451"/><stop offset="1" stop-opacity="0"/></linearGradient><linearGradient id="g" gradientUnits="userSpaceOnUse" x1="254" x2="254" y1="-168.666672" y2="233.5"><stop offset="0" stop-color="#616161"/><stop offset="1" stop-color="#424242"/></linearGradient><linearGradient id="h" gradientUnits="userSpaceOnUse" x1="31.753056" x2="31.75305801764" y1="56.06792890428" y2="5.79225538278"><stop offset="0" stop-color="#ab47bc"/><stop offset="1" stop-color="#ba68c8"/></linearGradient><path d="m36.382812 56.066406h5.292969v-2.644531h-5.292969zm0 0" fill="url(#b)"/><path d="m27.121094 56.066406h-5.289063v2.648438h5.289063zm0 0" fill="url(#c)"/><path d="m27.121094 56.066406h-5.289063v-2.644531h5.289063zm0 0" fill="url(#d)"/><path d="m36.382812 56.066406h5.292969v2.648438h-5.292969zm0 0" fill="url(#e)"/><path d="m27.121094 55.40625h9.261718v3.308594h-9.261718zm0 0" fill="url(#f)"/><path d="m254.006994-168.660675c111.051895 0 201.074548 90.022653 201.074548 201.074548s-90.022653 201.074548-201.074548 201.074548c-111.051896 0-201.105796-90.022653-201.105796-201.074548s90.0539-201.074548 201.105796-201.074548zm0 0" fill="url(#g)" stroke="#333" stroke-linecap="round" stroke-width="3" transform="matrix(.125012 0 0 .125012 0 26.877566)"/><path d="m31.753906 55.902344c-13.925781 0-25.140625-11.210938-25.140625-25.136719 0-.082031.003907-.164063.003907-.246094.128906 13.8125 11.292968 24.890625 25.136718 24.890625s25.003906-11.078125 25.136719-24.890625v.246094c0 13.925781-11.210937 25.136719-25.136719 25.136719zm0 0" fill-opacity=".196078"/><path d="m31.753906 5.957031c-13.925781 0-25.140625 11.210938-25.140625 25.136719 0 .082031.003907.164062.003907.246094.128906-13.808594 11.292968-24.890625 25.136718-24.890625s25.003906 11.082031 25.136719 24.890625c0-.082032 0-.164063 0-.246094 0-13.925781-11.210937-25.136719-25.136719-25.136719zm0 0" fill="#fff" fill-opacity=".392157"/><path d="m31.753906 5.605469c-14.027344 0-25.328125 11.296875-25.328125 25.324219 0 14.027343 11.300781 25.324218 25.328125 25.324218s25.324219-11.296875 25.324219-25.324218c0-14.027344-11.296875-25.324219-25.324219-25.324219zm0 .375c13.824219 0 24.949219 11.125 24.949219 24.949219 0 13.824218-11.125 24.949218-24.949219 24.949218-13.828125 0-24.953125-11.125-24.953125-24.949218 0-13.824219 11.125-24.949219 24.953125-24.949219zm0 0" fill="#212121"/><path d="m15.875 22.992188c-1.464844 0-2.644531 1.179687-2.644531 2.644531v5.292969.078124c.046875 4.359376 4.160156 7.859376 9.261719 7.859376 3.308593 0 7.9375-1.566407 7.9375-5.292969 0-.730469.589843-1.320313 1.324218-1.320313.730469 0 1.320313.589844 1.320313 1.320313 0 3.726562 4.632812 5.292969 7.941406 5.292969 5.101563 0 9.210937-3.5 9.257813-7.859376 0-.027343.003906-.050781.003906-.078124v-5.292969c0-1.464844-1.183594-2.644531-2.648438-2.644531h-6.613281c-2.753906 0-5.222656 1.019531-6.914063 2.644531h-4.695312c-1.695312-1.625-4.160156-2.644531-6.914062-2.644531zm6.617188 3.96875c2.929687 0 5.292968 1.769531 5.292968 3.96875 0 2.199218-2.363281 3.96875-5.292968 3.96875-2.933594 0-5.292969-1.769532-5.292969-3.96875 0-2.199219 2.359375-3.96875 5.292969-3.96875zm18.523437 0c2.929687 0 5.289063 1.769531 5.289063 3.96875 0 2.199218-2.359376 3.96875-5.289063 3.96875-2.933594 0-5.292969-1.769532-5.292969-3.96875 0-2.199219 2.359375-3.96875 5.292969-3.96875zm0 0" fill="url(#h)"/><path d="m15.875 22.992188c-1.464844 0-2.644531 1.179687-2.644531 2.644531v.992187c0-1.464844 1.179687-2.644531 2.644531-2.644531h6.617188c2.753906 0 5.21875 1.019531 6.914062 2.644531h4.695312c1.691407-1.625 4.160157-2.644531 6.914063-2.644531h6.613281c1.464844 0 2.648438 1.179687 2.648438 2.644531v-.992187c0-1.464844-1.183594-2.644531-2.648438-2.644531h-6.613281c-2.753906 0-5.222656 1.019531-6.914063 2.644531h-4.695312c-1.695312-1.625-4.160156-2.644531-6.914062-2.644531zm1.367188 8.433593c-.027344.164063-.042969.328125-.042969.496094 0 2.199219 2.359375 3.96875 5.292969 3.96875 2.929687 0 5.292968-1.769531 5.292968-3.96875 0-.167969-.015625-.332031-.042968-.496094-.324219 1.964844-2.542969 3.472657-5.25 3.472657-2.707032 0-4.929688-1.507813-5.25-3.472657zm18.519531 0c-.027344.164063-.039063.328125-.039063.496094 0 2.199219 2.359375 3.96875 5.292969 3.96875 2.929687 0 5.289063-1.769531 5.289063-3.96875 0-.167969-.011719-.332031-.039063-.496094-.324219 1.964844-2.542969 3.472657-5.25 3.472657-2.710937 0-4.929687-1.507813-5.253906-3.472657zm0 0" fill="#fff" fill-opacity=".392157"/><path d="m22.492188 26.960938c-2.933594 0-5.292969 1.769531-5.292969 3.96875 0 .226562.027343.445312.074219.660156.417968-1.878906 2.585937-3.304688 5.21875-3.304688 2.628906 0 4.800781 1.425782 5.21875 3.304688.046874-.214844.074218-.433594.074218-.660156 0-2.199219-2.363281-3.96875-5.292968-3.96875zm18.523437 0c-2.933594 0-5.292969 1.769531-5.292969 3.96875 0 .226562.023438.445312.074219.660156.414063-1.878906 2.585937-3.304688 5.21875-3.304688 2.628906 0 4.800781 1.425782 5.21875 3.304688.046875-.214844.070313-.433594.070313-.660156 0-2.199219-2.359376-3.96875-5.289063-3.96875zm-27.785156 3.96875v1.324218.074219c.046875 4.363281 4.160156 7.863281 9.261719 7.863281 3.308593 0 7.9375-1.566406 7.9375-5.292968 0-.730469.589843-1.324219 1.324218-1.324219.730469 0 1.320313.59375 1.320313 1.324219 0 3.726562 4.632812 5.292968 7.941406 5.292968 5.101563 0 9.210937-3.5 9.257813-7.863281 0-.023437.003906-.050781.003906-.074219v-1.324218c0 .027343-.003906.050781-.003906.078124-.046876 4.359376-4.15625 7.859376-9.257813 7.859376-3.308594 0-7.941406-1.566407-7.941406-5.292969 0-.730469-.589844-1.320313-1.320313-1.320313-.734375 0-1.324218.589844-1.324218 1.320313 0 3.726562-4.628907 5.292969-7.9375 5.292969-5.101563 0-9.214844-3.5-9.261719-7.859376 0-.027343 0-.050781 0-.078124zm0 0" fill-opacity=".235294"/><path d="m126.987873-31.080063c-11.717631 0-21.15423 9.436598-21.15423 21.154229v42.339707.62494c.374965 34.87167 33.278072 62.868997 74.086675 62.868997 26.466223 0 63.493937-12.530054 63.493937-42.339707 0-5.843192 4.7183-10.561491 10.592739-10.561491 5.843192 0 10.561491 4.718299 10.561491 10.561491 0 29.809653 37.058961 42.339707 63.525184 42.339707 40.808603 0 73.680463-27.997327 74.055428-62.868997 0-.218729.031247-.406211.031247-.62494v-42.339707c0-11.717631-9.467846-21.154229-21.185477-21.154229h-52.901198c-22.029147 0-41.777261 8.155471-55.307219 21.154229h-37.558913c-13.561205-12.998758-33.278072-21.154229-55.307219-21.154229zm52.932445 31.746968c23.435263 0 42.339707 14.154898 42.339707 31.746968s-18.904444 31.746968-42.339707 31.746968c-23.466509 0-42.339706-14.154898-42.339706-31.746968s18.873197-31.746968 42.339706-31.746968zm148.173351 0c23.435262 0 42.308459 14.154898 42.308459 31.746968s-18.873197 31.746968-42.308459 31.746968c-23.466509 0-42.339707-14.154898-42.339707-31.746968s18.873198-31.746968 42.339707-31.746968zm0 0" fill="none" stroke="#212121" stroke-linecap="round" stroke-linejoin="round" stroke-width="3" transform="matrix(.125012 0 0 .125012 0 26.877566)"/></svg>

<?xml version="1.0" encoding="UTF-8"?>
<svg xmlns="http://www.w3.org/2000/svg" xmlns:xlink="http://www.w3.org/1999/xlink" width="64px" height="64px" viewBox="0 0 64 64" version="1.1">
<defs>
<radialGradient id="radial0" gradientUnits="userSpaceOnUse" cx="450.908936" cy="189.579361" fx="450.908936" fy="189.579361" r="21.166656" gradientTransform="matrix(0.000000348341,-0.156265,-0.281277,-0.000000203077,89.046304,127.190659)">
<stop offset="0" style="stop-color:rgb(0%,0%,0%);stop-opacity:0.313726;"/>
<stop offset="0.222222" style="stop-color:rgb(0%,0%,0%);stop-opacity:0.27451;"/>
<stop offset="1" style="stop-color:rgb(0%,0%,0%);stop-opacity:0;"/>
</radialGradient>
<radialGradient id="radial1" gradientUnits="userSpaceOnUse" cx="450.908936" cy="189.579361" fx="450.908936" fy="189.579361" r="21.166656" gradientTransform="matrix(-0.000000348341,0.156265,0.281277,0.000000203077,-25.540237,-15.054964)">
<stop offset="0" style="stop-color:rgb(0%,0%,0%);stop-opacity:0.313726;"/>
<stop offset="0.222222" style="stop-color:rgb(0%,0%,0%);stop-opacity:0.27451;"/>
<stop offset="1" style="stop-color:rgb(0%,0%,0%);stop-opacity:0;"/>
</radialGradient>
<radialGradient id="radial2" gradientUnits="userSpaceOnUse" cx="450.908936" cy="189.579361" fx="450.908936" fy="189.579361" r="21.166656" gradientTransform="matrix(-0.000000348341,-0.156265,0.281277,-0.000000203077,-25.540237,127.190659)">
<stop offset="0" style="stop-color:rgb(0%,0%,0%);stop-opacity:0.313726;"/>
<stop offset="0.222222" style="stop-color:rgb(0%,0%,0%);stop-opacity:0.27451;"/>
<stop offset="1" style="stop-color:rgb(0%,0%,0%);stop-opacity:0;"/>
</radialGradient>
<radialGradient id="radial3" gradientUnits="userSpaceOnUse" cx="450.908936" cy="189.579361" fx="450.908936" fy="189.579361" r="21.166656" gradientTransform="matrix(0.000000348341,0.156265,-0.281277,0.000000203077,89.0463,-15.054965)">
<stop offset="0" style="stop-color:rgb(0%,0%,0%);stop-opacity:0.313726;"/>
<stop offset="0.222222" style="stop-color:rgb(0%,0%,0%);stop-opacity:0.27451;"/>
<stop offset="1" style="stop-color:rgb(0%,0%,0%);stop-opacity:0;"/>
</radialGradient>
<linearGradient id="linear0" gradientUnits="userSpaceOnUse" x1="255.323059" y1="233.5" x2="255.323044" y2="254.666656" gradientTransform="matrix(0.0267201,0,0,0.125012,24.930772,26.877567)">
<stop offset="0" style="stop-color:rgb(0%,0%,0%);stop-opacity:0.27451;"/>
<stop offset="1" style="stop-color:rgb(0%,0%,0%);stop-opacity:0;"/>
</linearGradient>
<linearGradient id="linear1" gradientUnits="userSpaceOnUse" x1="254" y1="-168.666672" x2="254" y2="233.5" >
<stop offset="0" style="stop-color:rgb(38.039216%,38.039216%,38.039216%);stop-opacity:1;"/>
<stop offset="1" style="stop-color:rgb(25.882354%,25.882354%,25.882354%);stop-opacity:1;"/>
</linearGradient>
<linearGradient id="linear2" gradientUnits="userSpaceOnUse" x1="960" y1="1695.118164" x2="960.000061" y2="175.118118" gradientTransform="matrix(0.0330761,0,0,0.0330761,0.0000000458377,0.0000305205)">
<stop offset="0" style="stop-color:rgb(67.058825%,27.843139%,73.725492%);stop-opacity:1;"/>
<stop offset="1" style="stop-color:rgb(72.941178%,40.784314%,78.431374%);stop-opacity:1;"/>
</linearGradient>
</defs>
<g id="surface1">
<path style=" stroke:none;fill-rule:nonzero;fill:url(#radial0);" d="M 36.382812 56.066406 L 41.675781 56.066406 L 41.675781 53.421875 L 36.382812 53.421875 Z M 36.382812 56.066406 "/>
<path style=" stroke:none;fill-rule:nonzero;fill:url(#radial1);" d="M 27.121094 56.066406 L 21.832031 56.066406 L 21.832031 58.714844 L 27.121094 58.714844 Z M 27.121094 56.066406 "/>
<path style=" stroke:none;fill-rule:nonzero;fill:url(#radial2);" d="M 27.121094 56.066406 L 21.832031 56.066406 L 21.832031 53.421875 L 27.121094 53.421875 Z M 27.121094 56.066406 "/>
<path style=" stroke:none;fill-rule:nonzero;fill:url(#radial3);" d="M 36.382812 56.066406 L 41.675781 56.066406 L 41.675781 58.714844 L 36.382812 58.714844 Z M 36.382812 56.066406 "/>
<path style=" stroke:none;fill-rule:nonzero;fill:url(#linear0);" d="M 27.121094 55.40625 L 36.382812 55.40625 L 36.382812 58.714844 L 27.121094 58.714844 Z M 27.121094 55.40625 "/>
<path style="fill-rule:nonzero;fill:url(#linear1);stroke-width:3;stroke-linecap:round;stroke-linejoin:miter;stroke:rgb(20%,20%,20%);stroke-opacity:1;stroke-miterlimit:4;" d="M 254.006994 -168.660675 C 365.058889 -168.660675 455.081542 -78.638022 455.081542 32.413873 C 455.081542 143.465768 365.058889 233.488421 254.006994 233.488421 C 142.955098 233.488421 52.901198 143.465768 52.901198 32.413873 C 52.901198 -78.638022 142.955098 -168.660675 254.006994 -168.660675 Z M 254.006994 -168.660675 " transform="matrix(0.125012,0,0,0.125012,0,26.877566)"/>
<path style=" stroke:none;fill-rule:nonzero;fill:rgb(0%,0%,0%);fill-opacity:0.196078;" d="M 31.753906 55.902344 C 17.828125 55.902344 6.613281 44.691406 6.613281 30.765625 C 6.613281 30.683594 6.617188 30.601562 6.617188 30.519531 C 6.746094 44.332031 17.910156 55.410156 31.753906 55.410156 C 45.597656 55.410156 56.757812 44.332031 56.890625 30.519531 C 56.890625 30.601562 56.890625 30.683594 56.890625 30.765625 C 56.890625 44.691406 45.679688 55.902344 31.753906 55.902344 Z M 31.753906 55.902344 "/>
<path style=" stroke:none;fill-rule:nonzero;fill:rgb(100%,100%,100%);fill-opacity:0.392157;" d="M 31.753906 5.957031 C 17.828125 5.957031 6.613281 17.167969 6.613281 31.09375 C 6.613281 31.175781 6.617188 31.257812 6.617188 31.339844 C 6.746094 17.53125 17.910156 6.449219 31.753906 6.449219 C 45.597656 6.449219 56.757812 17.53125 56.890625 31.339844 C 56.890625 31.257812 56.890625 31.175781 56.890625 31.09375 C 56.890625 17.167969 45.679688 5.957031 31.753906 5.957031 Z M 31.753906 5.957031 "/>
<path style=" stroke:none;fill-rule:nonzero;fill:rgb(12.941177%,12.941177%,12.941177%);fill-opacity:1;" d="M 31.753906 5.605469 C 17.726562 5.605469 6.425781 16.902344 6.425781 30.929688 C 6.425781 44.957031 17.726562 56.253906 31.753906 56.253906 C 45.78125 56.253906 57.078125 44.957031 57.078125 30.929688 C 57.078125 16.902344 45.78125 5.605469 31.753906 5.605469 Z M 31.753906 5.980469 C 45.578125 5.980469 56.703125 17.105469 56.703125 30.929688 C 56.703125 44.753906 45.578125 55.878906 31.753906 55.878906 C 17.925781 55.878906 6.800781 44.753906 6.800781 30.929688 C 6.800781 17.105469 17.925781 5.980469 31.753906 5.980469 Z M 31.753906 5.980469 "/>
<path style=" stroke:none;fill-rule:nonzero;fill:url(#linear2);" d="M 15.875 22.992188 C 14.410156 22.992188 13.230469 24.171875 13.230469 25.636719 L 13.230469 30.929688 C 13.230469 30.957031 13.230469 30.980469 13.230469 31.007812 C 13.277344 35.367188 17.390625 38.867188 22.492188 38.867188 C 25.800781 38.867188 30.429688 37.300781 30.429688 33.574219 C 30.429688 32.84375 31.019531 32.253906 31.753906 32.253906 C 32.484375 32.253906 33.074219 32.84375 33.074219 33.574219 C 33.074219 37.300781 37.707031 38.867188 41.015625 38.867188 C 46.117188 38.867188 50.226562 35.367188 50.273438 31.007812 C 50.273438 30.980469 50.277344 30.957031 50.277344 30.929688 L 50.277344 25.636719 C 50.277344 24.171875 49.09375 22.992188 47.628906 22.992188 L 41.015625 22.992188 C 38.261719 22.992188 35.792969 24.011719 34.101562 25.636719 L 29.40625 25.636719 C 27.710938 24.011719 25.246094 22.992188 22.492188 22.992188 Z M 22.492188 26.960938 C 25.421875 26.960938 27.785156 28.730469 27.785156 30.929688 C 27.785156 33.128906 25.421875 34.898438 22.492188 34.898438 C 19.558594 34.898438 17.199219 33.128906 17.199219 30.929688 C 17.199219 28.730469 19.558594 26.960938 22.492188 26.960938 Z M 41.015625 26.960938 C 43.945312 26.960938 46.304688 28.730469 46.304688 30.929688 C 46.304688 33.128906 43.945312 34.898438 41.015625 34.898438 C 38.082031 34.898438 35.722656 33.128906 35.722656 30.929688 C 35.722656 28.730469 38.082031 26.960938 41.015625 26.960938 Z M 41.015625 26.960938 "/>
<path style=" stroke:none;fill-rule:nonzero;fill:rgb(100%,100%,100%);fill-opacity:0.392157;" d="M 15.875 22.992188 C 14.410156 22.992188 13.230469 24.171875 13.230469 25.636719 L 13.230469 26.628906 C 13.230469 25.164062 14.410156 23.984375 15.875 23.984375 L 22.492188 23.984375 C 25.246094 23.984375 27.710938 25.003906 29.40625 26.628906 L 34.101562 26.628906 C 35.792969 25.003906 38.261719 23.984375 41.015625 23.984375 L 47.628906 23.984375 C 49.09375 23.984375 50.277344 25.164062 50.277344 26.628906 L 50.277344 25.636719 C 50.277344 24.171875 49.09375 22.992188 47.628906 22.992188 L 41.015625 22.992188 C 38.261719 22.992188 35.792969 24.011719 34.101562 25.636719 L 29.40625 25.636719 C 27.710938 24.011719 25.246094 22.992188 22.492188 22.992188 Z M 17.242188 31.425781 C 17.214844 31.589844 17.199219 31.753906 17.199219 31.921875 C 17.199219 34.121094 19.558594 35.890625 22.492188 35.890625 C 25.421875 35.890625 27.785156 34.121094 27.785156 31.921875 C 27.785156 31.753906 27.769531 31.589844 27.742188 31.425781 C 27.417969 33.390625 25.199219 34.898438 22.492188 34.898438 C 19.785156 34.898438 17.5625 33.390625 17.242188 31.425781 Z M 35.761719 31.425781 C 35.734375 31.589844 35.722656 31.753906 35.722656 31.921875 C 35.722656 34.121094 38.082031 35.890625 41.015625 35.890625 C 43.945312 35.890625 46.304688 34.121094 46.304688 31.921875 C 46.304688 31.753906 46.292969 31.589844 46.265625 31.425781 C 45.941406 33.390625 43.722656 34.898438 41.015625 34.898438 C 38.304688 34.898438 36.085938 33.390625 35.761719 31.425781 Z M 35.761719 31.425781 "/>
<path style=" stroke:none;fill-rule:nonzero;fill:rgb(0%,0%,0%);fill-opacity:0.235294;" d="M 22.492188 26.960938 C 19.558594 26.960938 17.199219 28.730469 17.199219 30.929688 C 17.199219 31.15625 17.226562 31.375 17.273438 31.589844 C 17.691406 29.710938 19.859375 28.285156 22.492188 28.285156 C 25.121094 28.285156 27.292969 29.710938 27.710938 31.589844 C 27.757812 31.375 27.785156 31.15625 27.785156 30.929688 C 27.785156 28.730469 25.421875 26.960938 22.492188 26.960938 Z M 41.015625 26.960938 C 38.082031 26.960938 35.722656 28.730469 35.722656 30.929688 C 35.722656 31.15625 35.746094 31.375 35.796875 31.589844 C 36.210938 29.710938 38.382812 28.285156 41.015625 28.285156 C 43.644531 28.285156 45.816406 29.710938 46.234375 31.589844 C 46.28125 31.375 46.304688 31.15625 46.304688 30.929688 C 46.304688 28.730469 43.945312 26.960938 41.015625 26.960938 Z M 13.230469 30.929688 L 13.230469 32.253906 C 13.230469 32.277344 13.230469 32.304688 13.230469 32.328125 C 13.277344 36.691406 17.390625 40.191406 22.492188 40.191406 C 25.800781 40.191406 30.429688 38.625 30.429688 34.898438 C 30.429688 34.167969 31.019531 33.574219 31.753906 33.574219 C 32.484375 33.574219 33.074219 34.167969 33.074219 34.898438 C 33.074219 38.625 37.707031 40.191406 41.015625 40.191406 C 46.117188 40.191406 50.226562 36.691406 50.273438 32.328125 C 50.273438 32.304688 50.277344 32.277344 50.277344 32.253906 L 50.277344 30.929688 C 50.277344 30.957031 50.273438 30.980469 50.273438 31.007812 C 50.226562 35.367188 46.117188 38.867188 41.015625 38.867188 C 37.707031 38.867188 33.074219 37.300781 33.074219 33.574219 C 33.074219 32.84375 32.484375 32.253906 31.753906 32.253906 C 31.019531 32.253906 30.429688 32.84375 30.429688 33.574219 C 30.429688 37.300781 25.800781 38.867188 22.492188 38.867188 C 17.390625 38.867188 13.277344 35.367188 13.230469 31.007812 C 13.230469 30.980469 13.230469 30.957031 13.230469 30.929688 Z M 13.230469 30.929688 "/>
<path style="fill:none;stroke-width:3;stroke-linecap:round;stroke-linejoin:round;stroke:rgb(12.941177%,12.941177%,12.941177%);stroke-opacity:1;stroke-miterlimit:4;" d="M 126.987873 -31.080063 C 115.270242 -31.080063 105.833643 -21.643465 105.833643 -9.925834 L 105.833643 32.413873 C 105.833643 32.632602 105.833643 32.820084 105.833643 33.038813 C 106.208608 67.910483 139.111715 95.90781 179.920318 95.90781 C 206.386541 95.90781 243.414255 83.377756 243.414255 53.568103 C 243.414255 47.724911 248.132555 43.006612 254.006994 43.006612 C 259.850186 43.006612 264.568485 47.724911 264.568485 53.568103 C 264.568485 83.377756 301.627446 95.90781 328.093669 95.90781 C 368.902272 95.90781 401.774132 67.910483 402.149097 33.038813 C 402.149097 32.820084 402.180344 32.632602 402.180344 32.413873 L 402.180344 -9.925834 C 402.180344 -21.643465 392.712498 -31.080063 380.994867 -31.080063 L 328.093669 -31.080063 C 306.064522 -31.080063 286.316408 -22.924592 272.78645 -9.925834 L 235.227537 -9.925834 C 221.666332 -22.924592 201.949465 -31.080063 179.920318 -31.080063 Z M 179.920318 0.666905 C 203.355581 0.666905 222.260025 14.821803 222.260025 32.413873 C 222.260025 50.005943 203.355581 64.160841 179.920318 64.160841 C 156.453809 64.160841 137.580612 50.005943 137.580612 32.413873 C 137.580612 14.821803 156.453809 0.666905 179.920318 0.666905 Z M 328.093669 0.666905 C 351.528931 0.666905 370.402128 14.821803 370.402128 32.413873 C 370.402128 50.005943 351.528931 64.160841 328.093669 64.160841 C 304.62716 64.160841 285.753962 50.005943 285.753962 32.413873 C 285.753962 14.821803 304.62716 0.666905 328.093669 0.666905 Z M 328.093669 0.666905 " transform="matrix(0.125012,0,0,0.125012,0,26.877566)"/>
</g>
</svg>
